X: 50
T:Irish Pat (#246)
M:4/4
L:1/8
S:Pat. Dunne manuscript
R:Reel
K:G
EAAB GABG|EAAB G2 ED|EAAB GABd|gfge d2 BG:||
geef defd|geeg a2 ab|geef defd|efge d2 cd|
geef defd|geeg a2 ga|bagf gfed|efge d2 BG||

